public/icons/tech-stack/express.svg

<svg width="111" height="25" viewBox="0 0 111 25" fill="none" xmlns="http://www.w3.org/2000/svg">
<path d="M34.4365 25V0.49044H35.7548V4.34608C35.9105 4.17528 36.0543 3.99383 36.1852 3.80303C36.7239 2.6745 37.5701 1.72433 38.6248 1.06389C39.6794 0.403445 40.8988 0.0601005 42.1399 0.0741011C45.1441 -0.0164069 47.5833 1.10589 49.0182 3.80303C49.9312 5.47854 50.4336 7.35021 50.4835 9.2617C50.5335 11.1732 50.1294 13.069 49.3052 14.7907C47.969 17.8137 44.6688 19.3161 41.1355 18.764C40.0359 18.6695 38.9773 18.2986 38.0563 17.6852C37.1352 17.0718 36.381 16.2354 35.8624 15.2523V25H34.4365ZM35.7548 9.1611C35.8713 10.3558 35.9162 11.2066 36.0507 12.0393C36.5708 15.3156 38.49 17.2616 41.5031 17.6146C42.918 17.8493 44.3697 17.5816 45.6108 16.857C46.852 16.1325 47.8058 14.996 48.3097 13.6412C48.8888 12.2477 49.1675 10.7459 49.1273 9.23534C49.0871 7.72481 48.7289 6.24019 48.0766 4.88008C47.5387 3.66581 46.6239 2.66117 45.4704 2.01786C44.3169 1.37455 42.9874 1.12751 41.6825 1.31406C40.4574 1.40365 39.2904 1.87627 38.3437 2.66623C37.3971 3.45618 36.7178 4.52421 36.4005 5.7218C36.1196 6.85469 35.904 8.00304 35.7548 9.1611ZM77.3745 12.4918C77.1748 14.2174 76.3608 15.8111 75.0841 16.9765C73.8073 18.1419 72.1546 18.7996 70.4334 18.8274C64.9092 19.1079 62.3175 15.4062 61.905 11.1342C61.6187 8.81427 61.9919 6.46001 62.9811 4.34608C63.67 2.89605 64.7983 1.70489 66.2025 0.945007C67.6068 0.185128 69.2142 -0.104039 70.7921 0.119358C72.2922 0.247677 73.7143 0.849031 74.8571 1.83827C75.9998 2.8275 76.8052 4.15448 77.1593 5.63129C77.4399 6.97633 77.6465 8.33603 77.7781 9.70415H63.2591C62.9901 13.5779 65.0527 16.6914 67.9762 17.4426C71.6171 18.3477 74.729 16.7547 75.8589 13.2611C76.11 12.3651 76.5674 12.2384 77.3745 12.4918ZM63.2591 8.46419H76.2356C76.1549 4.33703 73.608 1.35026 70.1554 1.30501C66.2454 1.24165 63.4295 4.11981 63.2591 8.46419ZM80.0469 12.5823H81.3203C81.3674 13.528 81.6719 14.4423 82.2003 15.2247C82.7287 16.0071 83.4606 16.6273 84.3156 17.0172C85.3892 17.5048 86.558 17.7418 87.7349 17.7104C88.9118 17.6791 90.0666 17.3803 91.1132 16.8362C91.6836 16.5767 92.1614 16.1468 92.4821 15.6046C92.8028 15.0625 92.9511 14.434 92.9068 13.8042C92.9396 13.1967 92.7752 12.595 92.4386 12.0903C92.102 11.5856 91.6115 11.2054 91.0415 11.0075C89.6425 10.4825 88.1538 10.1929 86.728 9.7313C85.2443 9.3049 83.7937 8.76948 82.3875 8.12931C80.0918 6.99796 79.9483 2.59022 82.5489 1.1964C83.8806 0.437978 85.3793 0.028211 86.9081 0.00449655C88.437 -0.0192179 89.9474 0.343874 91.3016 1.06064C92.1218 1.51818 92.7845 2.21722 93.201 3.06455C93.6176 3.91188 93.7684 4.86724 93.6332 5.80326H92.5391C92.5391 5.74895 92.4405 5.7037 92.4405 5.64939C92.3059 2.12863 89.3824 1.04254 86.2437 1.35026C85.3067 1.46691 84.3966 1.74552 83.5533 2.17389C83.0467 2.40772 82.6245 2.79452 82.345 3.28088C82.0655 3.76725 81.9425 4.32919 81.9929 4.88913C81.9945 5.44932 82.1677 5.99532 82.4888 6.45226C82.8099 6.9092 83.2632 7.25472 83.7865 7.44145C85.1675 7.94829 86.6114 8.27412 88.0283 8.67236C89.1672 8.98914 90.351 9.1973 91.454 9.57744C92.2325 9.83501 92.9152 10.3251 93.4116 10.9829C93.9081 11.6407 94.1949 12.4352 94.234 13.2611C94.3671 14.1661 94.2144 15.0903 93.7974 15.9027C93.3805 16.715 92.7206 17.3742 91.9114 17.7865C88.9161 19.4971 83.9838 19.0446 81.7867 16.8814C81.2298 16.3162 80.7894 15.6453 80.4908 14.9075C80.1922 14.1696 80.0413 13.3793 80.0469 12.5823ZM110.376 5.80326H109.183C109.183 5.64034 109.121 5.49553 109.103 5.35977C109.083 4.45746 108.757 3.58924 108.18 2.90052C107.602 2.2118 106.807 1.74438 105.928 1.57653C104.27 1.09646 102.502 1.18237 100.897 1.82091C100.263 2.00444 99.7045 2.39006 99.3053 2.9202C98.9061 3.45034 98.6875 4.09657 98.6821 4.76241C98.6598 5.41633 98.8617 6.05799 99.2539 6.57905C99.646 7.10011 100.204 7.46865 100.834 7.62247C102.628 8.18362 104.466 8.52755 106.287 9.03439C106.877 9.1773 107.458 9.35561 108.027 9.56839C108.876 9.87512 109.614 10.4334 110.144 11.1701C110.674 11.9069 110.972 12.7879 110.998 13.6981C111.024 14.6083 110.778 15.5052 110.291 16.2718C109.804 17.0383 109.099 17.6388 108.269 17.9947C107.003 18.5747 105.632 18.8815 104.242 18.8955C102.852 18.9096 101.474 18.6305 100.198 18.0761C99.1477 17.6191 98.2617 16.8484 97.6588 15.8678C97.056 14.8872 96.7652 13.7438 96.8257 12.5914H97.9916C98.2072 13.6415 98.6733 14.6228 99.3494 15.4502C100.025 16.2776 100.891 16.9262 101.872 17.3398C102.852 17.7534 103.918 17.9196 104.976 17.824C106.034 17.7283 107.054 17.3738 107.946 16.7909C108.489 16.506 108.94 16.0698 109.245 15.534C109.551 14.9982 109.697 14.3853 109.668 13.768C109.695 13.1601 109.525 12.56 109.183 12.0585C108.842 11.5571 108.347 11.1817 107.775 10.9894C106.376 10.4644 104.888 10.1838 103.462 9.72225C101.97 9.30244 100.51 8.77306 99.0946 8.13836C96.8526 7.02511 96.6733 2.65358 99.2291 1.25976C100.577 0.469559 102.105 0.0450791 103.664 0.0276325C105.223 0.0101858 106.76 0.400366 108.125 1.1602C108.906 1.6306 109.534 2.31992 109.934 3.14426C110.334 3.96861 110.487 4.89242 110.376 5.80326ZM32.2573 18.3839C31.7878 18.5633 31.2694 18.5629 30.8001 18.3828C30.3308 18.2027 29.9432 17.8553 29.7104 17.4064C28.2487 15.198 26.6345 13.0891 25.083 10.9351L24.4105 10.03C22.5631 12.528 20.7157 14.9265 19.0298 17.4154C18.8101 17.8445 18.4434 18.1784 17.9979 18.3549C17.5525 18.5314 17.0587 18.5385 16.6084 18.3748L23.5406 8.98914L17.0927 0.508539C17.5568 0.339398 18.0646 0.337079 18.5302 0.501972C18.9959 0.666865 19.3909 0.988869 19.6485 1.41362C21.1462 3.62201 22.8052 5.73085 24.4553 7.9664C26.1143 5.74895 27.7555 3.63107 29.289 1.44077C29.5098 1.01866 29.8767 0.693201 30.3199 0.52632C30.763 0.359439 31.2515 0.362775 31.6923 0.535694L29.1903 3.88449C28.0693 5.37787 26.9663 6.8803 25.8005 8.33748C25.7065 8.42237 25.6314 8.5263 25.5799 8.64249C25.5285 8.75867 25.5019 8.8845 25.5019 9.01176C25.5019 9.13902 25.5285 9.26485 25.5799 9.38104C25.6314 9.49723 25.7065 9.60116 25.8005 9.68605C27.9438 12.5552 30.0692 15.4333 32.2573 18.3839ZM61.6898 0.418032V1.68515C60.7827 1.6251 59.8733 1.75767 59.0202 2.0743C58.1671 2.39092 57.3893 2.88457 56.7369 3.52336C56.0845 4.16216 55.5721 4.93192 55.2327 5.78296C54.8933 6.63399 54.7345 7.54739 54.7666 8.46419V18.4201H53.4842V0.49044H54.7397V4.16506C56.2911 1.48603 58.6855 0.490439 61.6898 0.418032ZM0 8.87148C0.188325 7.9664 0.304906 6.97986 0.564974 6.05668C2.11641 0.490438 8.43873 -1.82656 12.7881 1.62179C15.335 3.64012 15.9717 6.50017 15.8462 9.72225H1.49763C1.26446 15.4786 5.3807 18.9541 10.6448 17.1801C11.4987 16.8718 12.2631 16.3538 12.8691 15.6728C13.475 14.9917 13.9033 14.1691 14.1154 13.2792C14.3934 12.3741 14.8418 12.2203 15.6937 12.4827C15.5534 13.5846 15.1674 14.64 14.5647 15.5696C13.962 16.4992 13.1584 17.2788 12.2142 17.8499C10.6541 18.7109 8.8643 19.052 7.10059 18.8244C5.33688 18.5968 3.68964 17.8122 2.39441 16.5828C1.11305 15.1287 0.338271 13.2914 0.188324 11.3514C0.188324 11.0437 0.0717427 10.7359 0.00896783 10.4463C0.00298927 9.9093 0 9.38436 0 8.87148ZM1.51556 8.48229H14.492C14.4113 4.30987 11.8017 1.35026 8.32215 1.32311C4.44805 1.26881 1.67699 4.16506 1.5066 8.46419L1.51556 8.48229Z" fill="black"/>
</svg>

<svg xmlns="http://www.w3.org/2000/svg" width="111" height="25" fill="none" xmlns:v="https://vecta.io/nano"><path d="M34.437 25V.49h1.318v3.856a5.03 5.03 0 0 0 .43-.543 6.57 6.57 0 0 1 2.44-2.739C39.679.403 40.899.06 42.14.074c3.004-.091 5.443 1.032 6.878 3.729a12.07 12.07 0 0 1 1.465 5.459c.05 1.912-.354 3.807-1.178 5.529-1.336 3.023-4.636 4.525-8.17 3.973a6.57 6.57 0 0 1-3.079-1.079 6.65 6.65 0 0 1-2.194-2.433V25h-1.426zm1.318-15.839l.296 2.878c.52 3.276 2.439 5.222 5.452 5.575a6.15 6.15 0 0 0 4.108-.758 6.24 6.24 0 0 0 2.699-3.216 10.74 10.74 0 0 0 .818-4.406c-.04-1.511-.398-2.995-1.051-4.355-.538-1.214-1.453-2.219-2.606-2.862s-2.483-.89-3.788-.704a5.88 5.88 0 0 0-3.339 1.352 5.97 5.97 0 0 0-1.943 3.056 30.47 30.47 0 0 0-.646 3.439zm41.62 3.331a7.19 7.19 0 0 1-2.29 4.485c-1.277 1.165-2.93 1.823-4.651 1.851-5.524.281-8.116-3.421-8.528-7.693a12.43 12.43 0 0 1 1.076-6.788c.689-1.45 1.817-2.641 3.221-3.401s3.012-1.049 4.59-.826a7.14 7.14 0 0 1 4.065 1.719 7.25 7.25 0 0 1 2.302 3.793 37.55 37.55 0 0 1 .619 4.073H63.259c-.269 3.874 1.794 6.987 4.717 7.738 3.641.905 6.753-.688 7.883-4.181.251-.896.709-1.023 1.516-.769zM63.259 8.464h12.977c-.081-4.127-2.628-7.114-6.08-7.159-3.91-.063-6.726 2.815-6.896 7.159zm16.788 4.118h1.273c.047.946.352 1.86.88 2.642s1.26 1.403 2.115 1.792c1.074.488 2.242.725 3.419.693a7.77 7.77 0 0 0 3.378-.874c.57-.26 1.048-.689 1.369-1.232a3.11 3.11 0 0 0 .425-1.8c.033-.607-.132-1.209-.468-1.714s-.827-.885-1.397-1.083c-1.399-.525-2.888-.815-4.314-1.276-1.484-.426-2.934-.962-4.34-1.602-2.296-1.131-2.439-5.539.161-6.933A9.09 9.09 0 0 1 86.908.004a9.09 9.09 0 0 1 4.393 1.056c.82.458 1.483 1.157 1.899 2.004a4.69 4.69 0 0 1 .432 2.739h-1.094c0-.054-.099-.1-.099-.154-.135-3.521-3.058-4.607-6.197-4.299a8.17 8.17 0 0 0-2.69.824 2.7 2.7 0 0 0-1.208 1.107c-.279.486-.403 1.048-.352 1.608.002.56.175 1.106.496 1.563s.774.802 1.298.989c1.381.507 2.825.833 4.242 1.231 1.139.317 2.323.525 3.426.905.779.258 1.461.748 1.958 1.405s.783 1.452.822 2.278a4.39 4.39 0 0 1-.437 2.642c-.417.812-1.077 1.471-1.886 1.884-2.995 1.711-7.928 1.258-10.125-.905a6.04 6.04 0 0 1-1.296-1.974c-.299-.738-.449-1.528-.444-2.325zm30.329-6.779h-1.193c0-.163-.062-.308-.08-.443-.02-.902-.346-1.771-.923-2.459s-1.373-1.156-2.252-1.324a7.76 7.76 0 0 0-5.031.244 3.06 3.06 0 0 0-1.592 1.099c-.399.53-.618 1.176-.623 1.842a2.86 2.86 0 0 0 .572 1.817c.392.521.95.89 1.58 1.043 1.794.561 3.632.905 5.453 1.412a15.15 15.15 0 0 1 1.74.534 4.49 4.49 0 0 1 2.117 1.602c.53.737.828 1.618.854 2.528s-.22 1.807-.707 2.574-1.192 1.367-2.022 1.723c-1.266.58-2.637.887-4.027.901s-2.768-.265-4.044-.819a5.61 5.61 0 0 1-2.539-2.208 5.69 5.69 0 0 1-.833-3.276h1.166c.216 1.05.682 2.031 1.358 2.859s1.542 1.476 2.523 1.89 2.046.58 3.104.484a6.5 6.5 0 0 0 2.97-1.033c.543-.285.994-.721 1.299-1.257s.452-1.149.423-1.766c.027-.608-.143-1.208-.485-1.71a2.77 2.77 0 0 0-1.408-1.069c-1.399-.525-2.887-.806-4.313-1.267a31.58 31.58 0 0 1-4.367-1.584c-2.242-1.113-2.421-5.485.135-6.879 1.348-.79 2.876-1.215 4.435-1.232s3.096.373 4.461 1.133a4.72 4.72 0 0 1 1.809 1.984 4.77 4.77 0 0 1 .442 2.659zM32.257 18.384c-.469.179-.988.179-1.457-.001a2.06 2.06 0 0 1-1.09-.976c-1.462-2.208-3.076-4.317-4.627-6.471l-.672-.905c-1.847 2.498-3.695 4.897-5.381 7.385a1.98 1.98 0 0 1-1.032.939c-.445.177-.939.184-1.39.02l6.932-9.386L17.093.509c.464-.169.972-.171 1.438-.007s.861.487 1.118.912c1.498 2.208 3.157 4.317 4.807 6.553l4.834-6.526c.221-.422.588-.748 1.031-.914a1.91 1.91 0 0 1 1.372.009L29.19 3.884l-3.39 4.453c-.094.085-.169.189-.221.305s-.078.242-.078.369.027.253.078.369.127.22.221.305l6.457 8.698zM61.69.418v1.267c-.907-.06-1.816.073-2.67.389s-1.631.81-2.283 1.449-1.165 1.409-1.504 2.26-.498 1.764-.466 2.681v9.956h-1.282V.49h1.255v3.675C56.291 1.486 58.686.49 61.69.418zM0 8.871c.188-.905.305-1.892.565-2.815C2.116.49 8.439-1.827 12.788 1.622c2.547 2.018 3.184 4.878 3.058 8.1H1.498c-.233 5.756 3.883 9.232 9.147 7.458a5.46 5.46 0 0 0 2.224-1.507 5.53 5.53 0 0 0 1.246-2.394c.278-.905.726-1.059 1.578-.796a7.39 7.39 0 0 1-1.129 3.087c-.603.93-1.406 1.709-2.351 2.28-1.56.861-3.35 1.202-5.114.974s-3.411-1.012-4.706-2.242C1.113 15.129.338 13.291.188 11.351c0-.308-.117-.615-.179-.905L0 8.871zm1.516-.389h12.976c-.081-4.172-2.69-7.132-6.17-7.159-3.874-.054-6.645 2.842-6.816 7.141l.009.018z" fill="#000"/></svg>
